X: 36703
T: Shearing Of The Shepherd, The
R: jig
M: 6/8
K: Amajor
|:E|Ace aga|f2 a d2 f|eAA cBA|BcA G2 E|
Ac/d/e aga|f2 a def|ece dBG|A3 A2:|
|:g|fcc c2 g|fcc a2 f|eBB B2 e|
[1 gab ^e2 g|fcc c2 g|fcc d2 f|ece dBG|A3 A2:|
[2 Bc/B/A GFE|Ace a2 a|ff/g/a d2 f|ec/d/e dBG|A3- A2||

